icons/arrow-down.svg

<svg xmlns="http://www.w3.org/2000/svg" width="24" height="24" viewBox="0 0 24 24">
  <path d="M12,3 C12.5128358,3 12.9355072,3.38604019 12.9932723,3.88337887 L13,4 L12.9991458,17.585 L16.9497475,13.636039 C17.3402718,13.2455147 17.9734367,13.2455147 18.363961,13.636039 C18.724445,13.9965229 18.7521745,14.563754 18.4471496,14.9560452 L18.363961,15.0502525 L12.7071068,20.7071068 C12.679244,20.7349696 12.6497447,20.7611958 12.6187653,20.7856288 L12.7071068,20.7071068 C12.6654667,20.7487468 12.621068,20.785947 12.574499,20.8187072 C12.5583004,20.8300038 12.5415283,20.8410665 12.5244138,20.8516276 C12.5087703,20.8613648 12.4935488,20.8701866 12.4781534,20.8785739 C12.4604898,20.8881407 12.4419547,20.897529 12.4230991,20.9063462 C12.4060985,20.914321 12.3887956,20.9218036 12.371336,20.9287745 C12.3515792,20.9366843 12.3317977,20.9438775 12.3117364,20.9504533 L12.3121425,20.9502619 L12.2918437,20.9566726 C12.2816023,20.9597872 12.2713208,20.9627338 12.2610035,20.9655125 C12.2503606,20.9684635 12.239858,20.9711102 12.2292908,20.9735893 L12.202746,20.9793458 C12.1831662,20.9833803 12.1634888,20.9868237 12.1437426,20.9896761 C12.1244902,20.9925211 12.1048699,20.9947641 12.0850857,20.9964311 C12.0677023,20.9978699 12.0503712,20.9988882 12.0330282,20.9994578 C12.0222108,20.9998183 12.0111266,21 12,21 L11.9669718,20.9994578 C11.9495547,20.9988858 11.9321496,20.9978612 11.9147758,20.996384 L11.8833789,20.9932723 L11.8833789,20.9932723 L11.8565374,20.9897165 C11.8366972,20.9868563 11.8169264,20.9833994 11.797254,20.9793458 C11.7883467,20.9776005 11.7795056,20.975653 11.7707092,20.9735893 L11.7389965,20.9655125 C11.7286792,20.9627338 11.7183977,20.9597872 11.7081563,20.9566726 L11.6872762,20.9501291 C11.6689468,20.9440997 11.6508514,20.9375547 11.6330072,20.9305112 C11.6208057,20.9256961 11.6083879,20.9205179 11.5960574,20.9150783 L11.5690323,20.9026247 C11.5523314,20.8946363 11.5358868,20.8861981 11.5197141,20.8773256 C11.5064305,20.8701389 11.4928304,20.8622728 11.4793822,20.8540601 C11.4583066,20.8410808 11.4377852,20.8274737 11.4178133,20.8131491 C11.4048869,20.8039771 11.3917355,20.79405 11.3787805,20.7837553 C11.3484595,20.7595963 11.3199072,20.7341207 11.2928932,20.7071068 L5.63603897,15.0502525 C5.24551468,14.6597282 5.24551468,14.0265633 5.63603897,13.636039 C5.99652293,13.275555 6.56375399,13.2478255 6.95604519,13.5528504 L7.05025253,13.636039 L10.9991458,17.585 L11,4 C11,3.44771525 11.4477153,3 12,3 Z"/>
</svg>

<svg xmlns="http://www.w3.org/2000/svg" viewBox="0 0 24 24">
  <path d="M12 3a1 1 0 0 1 1 .88V17.6l3.95-3.95a1 1 0 0 1 1.5 1.32l-.09.09-5.65 5.66a1 1 0 0 1-.1.08l.1-.08a1 1 0 0 1-.4.24h-.02a1 1 0 0 1-.06.02h-.03a1 1 0 0 1-.2.03h-.03a1 1 0 0 1-.06 0h-.03l-.02-.01a1 1 0 0 1-.09-.02h-.03a1 1 0 0 1-.03-.01l-.02-.01a1 1 0 0 1-.1-.03l-.02-.02a1 1 0 0 1-.28-.2l-5.65-5.65a1 1 0 0 1 1.32-1.5l.09.09L11 17.59V4a1 1 0 0 1 1-1z"/>
</svg>
